public/im/ic_im_service.svg

<?xml version="1.0" encoding="UTF-8"?>
<svg width="81px" height="81px" viewBox="0 0 81 81" version="1.1" xmlns="http://www.w3.org/2000/svg" xmlns:xlink="http://www.w3.org/1999/xlink">
    <!-- Generator: Sketch 63.1 (92452) - https://sketch.com -->
    <title>img_supporter_avatar</title>
    <desc>Created with Sketch.</desc>
    <defs>
        <linearGradient x1="100%" y1="0%" x2="0%" y2="108.736139%" id="linearGradient-1">
            <stop stop-color="#6361FF" offset="0%"></stop>
            <stop stop-color="#337AFF" offset="100%"></stop>
        </linearGradient>
    </defs>
    <g id="img_supporter_avatar" stroke="none" stroke-width="1" fill="none" fill-rule="evenodd">
        <g id="客服">
            <rect id="矩形" fill="#000000" fill-rule="nonzero" opacity="0" x="0" y="0" width="81" height="81"></rect>
            <circle id="椭圆形" fill="url(#linearGradient-1)" cx="40" cy="41" r="40"></circle>
            <path d="M43.9185263,69.677231 C43.3674106,71.2167749 41.8822004,72.3322528 40.1261028,72.3322528 C37.893617,72.3322528 36.0908148,70.5530194 36.0908148,68.3589389 C36.0908148,66.1648584 37.8936171,64.3856249 40.1261028,64.3856249 C41.7327453,64.3856249 43.1058641,65.3167264 43.7597302,66.6534561 C53.9507006,64.8926603 61.115205,57.453178 62.7685522,44.7865114 C62.460301,44.703542 62.1613908,44.5836973 61.8998443,44.4085395 C60.8443177,51.7651625 56.061754,57.9325569 49.504411,61.0300825 C53.3715621,58.2183406 55.9122989,53.6550218 56.1738454,48.3910723 C56.4914375,39.1999029 42.4987027,30.0456089 41.8168137,30.7554585 C40.9948106,29.9257642 40.7799689,36.5448811 36.8007265,38.8588064 C33.4099637,42.0853955 27.291645,39.5225618 25.0217956,45.6807375 C23.6113129,52.3551673 27.5905553,58.9650655 33.0643488,62.1086851 C25.1432278,59.573508 19.1930463,52.7607957 17.9787235,44.4454148 C17.5210172,44.7311985 16.9792424,44.8971373 16.3907629,44.8971373 L16.0171251,44.8971373 C14.3450961,44.8971373 13,43.5604075 13,41.9102378 L13,36.7384765 C13,35.3279961 13.999481,34.1479864 15.3445771,33.8345463 C18.1562014,21.8685104 28.1977167,13 40.1261028,13 C52.0825117,13 62.1427089,21.9146045 64.9263104,33.9175158 C66.1219513,34.3139253 67,35.4201844 67,36.7384765 L67,41.9286754 C66.9906591,42.8321203 66.5703166,43.643377 65.9164505,44.1872877 C64.5059679,59.7210092 56.1364816,67.9533105 43.9185263,69.677231 Z M40.0188598,16 C29.4479211,16 20.546078,23.8735408 18,34.5009728 C18.1508787,34.621109 18.2923275,34.7597277 18.4243463,34.9168288 C21.243892,25.9620623 29.7591085,19.4469845 39.8396913,19.4469845 C49.948564,19.4469845 58.4826403,25.9990273 61.2738963,35 C61.4813544,34.7320039 61.7171025,34.5009728 62,34.3161478 C59.3973425,23.7811284 50.533219,16 40.0188598,16 Z M34,53.7837149 C35.3690166,54.4452925 37.0348129,54.832061 38.8442123,54.832061 C41.2854656,54.832061 43.4778068,54.1195929 45,53 C44.7032202,55.2391858 42.3289817,57 39.4090513,57 C36.843342,57 34.6988685,55.6361323 34,53.7837149 Z" id="形状" fill="#FFFFFF" fill-rule="nonzero"></path>
        </g>
    </g>
</svg>

<svg xmlns="http://www.w3.org/2000/svg" width="81" height="81" viewBox="0 0 81 81"><title>img_supporter_avatar</title><defs><linearGradient id="a" x1="100%" x2="0%" y1="0%" y2="108.736%"><stop offset="0%" stop-color="#6361FF"/><stop offset="100%" stop-color="#337AFF"/></linearGradient></defs><g fill="none" fill-rule="evenodd"><circle cx="40" cy="41" r="40" fill="url(#a)"/><path fill="#FFF" fill-rule="nonzero" d="M43.919 69.677a4.024 4.024 0 0 1-3.793 2.655c-2.232 0-4.035-1.779-4.035-3.973s1.803-3.973 4.035-3.973c1.607 0 2.98.93 3.634 2.267 10.19-1.76 17.355-9.2 19.009-21.866a2.92 2.92 0 0 1-.87-.378c-1.055 7.356-5.837 13.524-12.395 16.621 3.868-2.812 6.408-7.375 6.67-12.639.317-9.191-13.675-18.345-14.357-17.636-.822-.83-1.037 5.79-5.016 8.104-3.391 3.226-9.51.664-11.78 6.822-1.41 6.674 2.57 13.284 8.043 16.428-7.92-2.535-13.871-9.348-15.085-17.664-.458.286-1 .452-1.588.452h-.374C14.345 44.897 13 43.56 13 41.91v-5.172c0-1.41 1-2.59 2.345-2.903C18.156 21.869 28.198 13 40.126 13c11.957 0 22.017 8.915 24.8 20.918 1.196.396 2.074 1.502 2.074 2.82v5.19a2.977 2.977 0 0 1-1.084 2.26c-1.41 15.533-9.78 23.765-21.997 25.49zM40.019 16C29.448 16 20.546 23.874 18 34.501c.15.12.292.259.424.416 2.82-8.955 11.335-15.47 21.416-15.47 10.109 0 18.643 6.552 21.434 15.553.207-.268.443-.499.726-.684C59.397 23.781 50.533 16 40.019 16zM34 53.784c1.369.661 3.035 1.048 4.844 1.048 2.441 0 4.634-.712 6.156-1.832-.297 2.24-2.671 4-5.59 4-2.567 0-4.711-1.364-5.41-3.216z"/></g></svg>
